X:2510
T:Cantar d'Arrieros (CT 147)
R:Arrieros
C:Tradicional
S:Música Tradicional Asturiana, (C) Tello & Tito. Asturies, 2001.
S:http://pagina.de/MusTradAst <telloytito@asturies.org>
N:Canción de empleo indeterminado, transcrita en Colloto, ayuntamiento de Siero.
N:La cantan generalmente los arrieros.
O:Colloto (Siero)
A:Asturies
Z:Cancioneru de Torner 147
M:3/4
L:1/8
Q:1/4=72
W:¿De quién son aquellos gües, (bis)
W:que lleven los esquilones? (bis)
W:Son de Pachu Les Cabañes,
W:que los tien mui fanfarrones.
K:G
|BB/A/ G2 B>B|(c-(3c/B/A/ B4)|
BB/A/ G2 B>B|[M:2/4](c-(3c/B/A/ B)z|[M:3/4]AA/G/ F2 A>A|(c(3c/B/A/ G2) z2|
BB/A/ G2 B>B|(c(3c/B/A/ B4)|
BB/A/ G2 B>B|[M:2/4](c(3c/B/A/ B)z|[M:3/4]AA/G/ F2 A>A|(c(3c/B/A/ G2) z2||


